X: 88
T:Westphalia Waltz - Second Violin
M:3/4
L:1/4
Q:90
R:Waltz
K:G
z|:B,2-C|(D-(3D/2A/2B/2 c)|(B2-B3/4^A/4)|(B2-(3D/2_D/2C/2)|B,2-C|D2E3/4
-B,/4|(C2-C/2D/2)|C2 F|!
c2-d|e2-b|(a2-a/2b/2)|(a2 (3g/2a/2g/2)|f2-g|[1f2-A|(G2-G3/4A/4)|G2 (3D/2
_D/2C
/2:|!
[2f2-c|B3/2 ^A B3/4-c/4|B z/2 G A/2-^A/2||B z/2 B/2 (3B/2B/2B/2|B z/2 B/
2 (3B/2B/2B/2|B c d/2-e/2|G3|(3G/2A/2G/2 F E|!
(3G/2A/2G/2 F E|(F2-F3/4G/4)|F3|Az/2 A/2 (3A/2A/2A/2|_Az/2A/2 (3A/2A/2A/
2|GAB|A2-G|F3/2 ^E/2 F/2-G/2|!
[1F =F E|D3|D2 z:|[2F2C|(3B,/2C/2B,/2 ^A,/2-B,/2 D/2-G/2|[B,3G3]|]
